packages/core/src/svgs/tokens/branded/TET.svg

<svg width="24" height="24" viewBox="0 0 24 24" fill="none" xmlns="http://www.w3.org/2000/svg">
<path fill-rule="evenodd" clip-rule="evenodd" d="M7.35613 2.33637C7.08646 2.55501 6.90057 2.8601 6.8299 3.20001V3.19335L3.36324 20.2201C3.32068 20.4375 3.32707 20.6617 3.38195 20.8765C3.43683 21.0912 3.53881 21.2911 3.68052 21.4614C3.82222 21.6319 4.00007 21.7686 4.20118 21.8618C4.40229 21.955 4.62162 22.0021 4.84324 21.9999H15.6833C16.0292 21.9996 16.3646 21.88 16.6329 21.6616C16.9013 21.443 17.0861 21.1388 17.1565 20.8L20.6366 3.78001C20.8166 2.86001 20.1032 2.00001 19.15 2.00001H8.3099C7.96271 1.99889 7.6258 2.1177 7.35613 2.33637ZM11.2684 8.00054L9.19504 17.7405H9.18182C9.16175 17.8139 9.12846 17.9805 9.12846 18.0939C9.12846 18.2339 9.3618 18.6672 10.4284 18.6672C11.4884 18.6672 11.9818 18.4673 12.1151 17.8006C12.2218 17.2672 13.5218 10.9605 14.1618 8.00054H17.0017C17.3284 7.95387 17.9884 7.82055 17.9884 6.68722C17.9884 6.14721 17.6751 6.00055 17.4751 6.00055H8.87511C8.58178 6.05387 7.98844 6.20055 7.98844 7.33388C7.98844 7.68055 8.20177 8.00054 8.53511 8.00054H11.2684Z" fill="#487BFF"/>
</svg>

<svg xmlns="http://www.w3.org/2000/svg" width="24" height="24" fill="none" viewBox="0 0 24 24">
    <path fill="#487BFF" fill-rule="evenodd" d="M7.356 2.336c-.27.219-.455.524-.526.864v-.007L3.363 20.22A1.493 1.493 0 0 0 4.843 22h10.84a1.51 1.51 0 0 0 1.474-1.2l3.48-17.02c.18-.92-.534-1.78-1.487-1.78H8.31a1.5 1.5 0 0 0-.954.336m3.912 5.665-2.073 9.74h-.013c-.02.073-.054.24-.054.353 0 .14.234.573 1.3.573 1.06 0 1.554-.2 1.687-.866a1255 1255 0 0 1 2.047-9.8h2.84c.326-.047.986-.18.986-1.314 0-.54-.313-.686-.513-.686h-8.6c-.293.053-.887.2-.887 1.333 0 .347.214.667.547.667z" clip-rule="evenodd"/>
</svg>
